**kern	**kern	**dynam
*part1	*part1	*part1
*staff2	*staff1	*
*I"Piano	*	*
*clefF4	*clefG2	*
*k[b-e-a-d-]	*k[b-e-a-d-]	*
=1	=1	=1
*^	*	*
!	!	!LO:TX:a:i:t=a tempo	!
8r	4.AA-	4e- 4a- 4cc	f
(8A-L	.	.	.
8E-J)	.	(8g 8b- 8ee-	.
=	=	=	=
*	*	*^	*
8r	4.AA-	8.fL 8.dd-	4.g	.
(8B-L	.	.	.	.
.	.	16e-K 16cc	.	.
8E-J)	.	8d-J 8b-	.	.
*	*	*v	*v	*
=	=	=	=
8r	4.AA-	4e- 4a- 4cc	.
(8A-L	.	.	.
8E-J)	.	8g 8b- 8ee-	.
=	=	=	=
*	*	*^	*
8r	4.AA-	8.fL 8.dd-	4.g	.
(8B-L	.	.	.	.
.	.	16e-K 16cc	.	.
8E-J)	.	8d-J 8b-	.	.
*	*	*v	*v	*
=	=	=	=
8r	4.AA-	4e- 4a- 4cc	.
(8A-L	.	.	.
8E-J)	.	8c 8e- 8a-	.
=	=	=	=
8r	4.AA-	8c-X 8dn 8f	.
(8GL	.	4B- 4d-X 4e-	.
8E-J)	.	.	.
=	=	=	=
*	*	*^	*
8r	4.AA-	4.a-^^)	(4c	.
(8A-L	.	.	.	.
8E-J)	.	.	8e-)	.
=	=	=	=	=
8r	4.AA-	4.a-^^	(4c	.
(8A-L	.	.	.	.
8E-J)	.	.	8e-)	.
*v	*v	*	*	*
*	*v	*v	*
=	=	=
*-	*-	*-
!!!system-decoration: {(s1,s2)}
